svgs/vrb.svg

<svg xmlns="http://www.w3.org/2000/svg" viewBox="0 0 192 192"><path d="M137.071 160.331c-1.387-.908-2.26-2.55-2.27-4.266-.027-4.863 4.154-7.261 7.132-4.09 1.162 1.237 1.353 1.767 1.353 3.744 0 1.978-.191 2.507-1.353 3.745-1.443 1.536-3.328 1.873-4.862.867Zm-56.237-19.314c-.578-.546-3.653-6.959-6.804-14.187l-1.184-2.716-3.253-.145-3.253-.145.145 8.417.146 8.417-4.143-.001-4.144-.001-.018-24.729-.018-24.728 9.962.179c9.16.165 10.152.268 12.307 1.29 4.763 2.259 7.293 7.568 6.881 14.442-.309 5.139-2.463 9.589-6.211 12.828l-1.543 1.334 4.181 7.347c2.3 4.041 4.533 7.805 4.962 8.366 1.604 2.094.618 3.063-3.984 3.916-.912.169-2.047.4-2.523.515-.476.114-1.154-.066-1.507-.399Zm-6.124-25.298c.661-.407 1.724-1.556 2.362-2.554.996-1.556 1.179-2.346 1.286-5.556.213-6.42-1.754-8.648-7.651-8.669-1.861-.006-3.489.113-3.617.266-.345.409-.835 15.523-.534 16.457.351 1.091 6.408 1.133 8.154.056Zm23.412 25.11-1.658-.217V91.274h8.046c9.478 0 12.45.508 15.441 2.639 3.133 2.232 4.278 4.837 4.267 9.707-.011 5.012-1.722 8.721-4.947 10.727l-1.226.763 1.961.918c2.921 1.368 3.93 2.309 5.164 4.819.953 1.938 1.114 2.816 1.095 5.979-.04 7.096-2.822 10.961-9.497 13.198-2.069.693-15.176 1.258-18.646.805Zm16.323-8.223c4.484-2.734 4.445-9.772-.068-12.214-1.333-.72-2.708-.95-5.735-.959l-3.982-.01-.237 2.377c-.13 1.308-.128 4.53.004 7.161l.239 4.783 3.979-.014c3.294-.012 4.293-.205 5.801-1.124Zm-1.835-20.929c2.525-1.435 3.894-6.485 2.644-9.755-.867-2.267-2.281-2.936-6.67-3.154l-4.04-.201v13.942h3.301c2.24 0 3.771-.268 4.765-.832Zm24.427 29.021c-1.618-.827-3.074-3.427-3.074-5.487 0-3.644 1.676-5.874 4.711-6.27 2.229-.29 4.338 1.336 5.19 4.003 1.179 3.694-.921 7.558-4.343 7.99-.892.113-2.01.007-2.484-.236Zm-109.25-2.633c-.695-2.855-10.504-41.217-11.743-45.927-.206-.785.17-.864 4.126-.864h4.354l.286 2.346c.158 1.29 1.964 9.457 4.013 18.148 2.05 8.692 3.915 16.645 4.144 17.674.23 1.029.608 1.796.841 1.703.637-.253 8.482-28.169 9.61-34.198l.853-4.562c.199-1.062.391-1.111 4.378-1.111 2.448 0 4.113.193 4.032.468-.076.257-3.214 11.366-6.975 24.687l-6.836 24.218-5.226.005-5.225.005-.632-2.592Zm108.437-18.052c-1.895-1.421-2.675-3.175-2.675-6.012 0-2.139.197-2.751 1.382-4.292 1.201-1.561 1.676-1.823 3.625-1.995 1.755-.155 2.543.025 3.616.828 3.22 2.408 3.332 8.367.209 11.084-1.579 1.373-4.59 1.563-6.157.387Zm17.292-.603c-3.783-2.749-2.815-9.835 1.557-11.396 4.511-1.611 8.266 4.28 6.023 9.449-1.252 2.886-4.972 3.842-7.58 1.947Zm-16.445-18.803c-1.654-.606-2.414-1.355-3.468-3.416-1.865-3.645-.754-8.421 2.425-10.435 4.171-2.641 9.282.887 9.282 6.407 0 3.194-1.152 5.477-3.468 6.877-1.965 1.187-2.805 1.287-4.771.567Zm16.324-2.067c-1.605-1.288-2.618-4.205-2.217-6.385.142-.769.722-2.056 1.289-2.859 3.14-4.447 9.258-1.956 9.258 3.769 0 1.215-.283 2.861-.629 3.657-1.292 2.979-5.125 3.884-7.701 1.818Zm16.585-2.29c-1.546-1.841-1.62-4.04-.194-5.739 2.212-2.637 6.027-1.031 6.027 2.537 0 2.281-.353 3.101-1.687 3.923-1.739 1.072-2.796.888-4.146-.721Zm-32.495-14.822c-3.766-1.089-6.008-4.396-6.008-8.864 0-3.054.676-4.792 2.68-6.889 1.789-1.872 2.887-2.242 5.804-1.954 5.026.497 8.146 6.595 6.206 12.13-1.496 4.268-5.132 6.603-8.682 5.577Zm-18.729-3.467c-1.821-1.324-2.757-3.631-2.479-6.107.3-2.661 1.457-4.383 3.532-5.256 4.811-2.026 9.009 4.382 6.165 9.411-1.69 2.989-4.679 3.797-7.218 1.952Zm34.889-.014c-1.372-1.076-2.698-3.638-2.684-5.184.005-.547.354-1.901.776-3.008 1.672-4.389 6.503-4.862 9.122-.894 1.067 1.616 1.16 5.124.188 7.085-1.454 2.932-4.994 3.889-7.402 2.001Zm-52.091-1.532c-2.186-1.945-1.874-6.639.542-8.127 2.952-1.82 6.149.452 6.168 4.382.02 3.992-3.944 6.204-6.71 3.745Zm-16.333-.523c-.884-.52-1.809-2.355-1.809-3.587 0-.358.387-1.237.859-1.952 1.06-1.607 3.589-1.822 4.671-.398.909 1.198.887 4.16-.04 5.155-.991 1.065-2.616 1.41-3.681.782Zm51.525-20.064c-1.671-1.233-2.255-3.896-1.351-6.166 1.884-4.733 7.684-3.065 7.684 2.21 0 3.912-3.462 6.075-6.333 3.956Zm-17.089-1.23c-.826-.847-1.163-1.653-1.163-2.78 0-3.471 3.474-4.973 5.383-2.328 1.217 1.686 1.227 2.868.038 4.454-1.398 1.864-2.858 2.089-4.258.654Zm-16.85-.732c-1.168-1.621-1.205-2.588-.146-3.849 1.537-1.832 3.541-.713 3.541 1.979 0 1.223-.243 1.72-1.056 2.161-1.391.756-1.604.729-2.339-.291Zm34.135-16.439c-.906-1.006-1.228-3.583-.59-4.722.444-.791 1.989-1.679 2.925-1.679 1.218 0 2.525 1.534 2.811 3.301.521 3.216-3.086 5.388-5.146 3.1Z"/></svg>

<svg
    xmlns="http://www.w3.org/2000/svg"
    viewBox="0 0 192 192"
    id="vector">
    <g id="group">
        <path
            id="path_6"
            d="M 137.071 160.331 C 135.684 159.423 134.811 157.781 134.801 156.065 C 134.774 151.202 138.955 148.804 141.933 151.975 C 143.095 153.212 143.286 153.742 143.286 155.719 C 143.286 157.697 143.095 158.226 141.933 159.464 C 140.49 161 138.605 161.337 137.071 160.331 Z M 80.834 141.017 C 80.256 140.471 77.181 134.058 74.03 126.83 L 72.846 124.114 L 69.593 123.969 L 66.34 123.824 L 66.485 132.241 L 66.631 140.658 L 62.488 140.657 L 58.344 140.656 L 58.326 115.927 L 58.308 91.199 L 68.27 91.378 C 77.43 91.543 78.422 91.646 80.577 92.668 C 85.34 94.927 87.87 100.236 87.458 107.11 C 87.149 112.249 84.995 116.699 81.247 119.938 L 79.704 121.272 L 83.885 128.619 C 86.185 132.66 88.418 136.424 88.847 136.985 C 90.451 139.079 89.465 140.048 84.863 140.901 C 83.951 141.07 82.816 141.301 82.34 141.416 C 81.864 141.53 81.186 141.35 80.833 141.017 Z M 74.71 115.719 C 75.371 115.312 76.434 114.163 77.072 113.165 C 78.068 111.609 78.251 110.819 78.358 107.609 C 78.571 101.189 76.604 98.961 70.707 98.94 C 68.846 98.934 67.218 99.053 67.09 99.206 C 66.745 99.615 66.255 114.729 66.556 115.663 C 66.907 116.754 72.964 116.796 74.71 115.719 Z M 98.122 140.829 L 96.464 140.612 L 96.464 91.274 L 104.51 91.274 C 113.988 91.274 116.96 91.782 119.951 93.913 C 123.084 96.145 124.229 98.75 124.218 103.62 C 124.207 108.632 122.496 112.341 119.271 114.347 L 118.045 115.11 L 120.006 116.028 C 122.927 117.396 123.936 118.337 125.17 120.847 C 126.123 122.785 126.284 123.663 126.265 126.826 C 126.225 133.922 123.443 137.787 116.768 140.024 C 114.699 140.717 101.592 141.282 98.122 140.829 Z M 114.445 132.606 C 118.929 129.872 118.89 122.834 114.377 120.392 C 113.044 119.672 111.669 119.442 108.642 119.433 L 104.66 119.423 L 104.423 121.8 C 104.293 123.108 104.295 126.33 104.427 128.961 L 104.666 133.744 L 108.645 133.73 C 111.939 133.718 112.938 133.525 114.446 132.606 Z M 112.61 111.677 C 115.135 110.242 116.504 105.192 115.254 101.922 C 114.387 99.655 112.973 98.986 108.584 98.768 L 104.544 98.567 L 104.544 112.509 L 107.845 112.509 C 110.085 112.509 111.616 112.241 112.61 111.677 Z M 137.037 140.698 C 135.419 139.871 133.963 137.271 133.963 135.211 C 133.963 131.567 135.639 129.337 138.674 128.941 C 140.903 128.651 143.012 130.277 143.864 132.944 C 145.043 136.638 142.943 140.502 139.521 140.934 C 138.629 141.047 137.511 140.941 137.037 140.698 Z M 27.787 138.065 C 27.092 135.21 17.283 96.848 16.044 92.138 C 15.838 91.353 16.214 91.274 20.17 91.274 L 24.524 91.274 L 24.81 93.62 C 24.968 94.91 26.774 103.077 28.823 111.768 C 30.873 120.46 32.738 128.413 32.967 129.442 C 33.197 130.471 33.575 131.238 33.808 131.145 C 34.445 130.892 42.29 102.976 43.418 96.947 L 44.271 92.385 C 44.47 91.323 44.662 91.274 48.649 91.274 C 51.097 91.274 52.762 91.467 52.681 91.742 C 52.605 91.999 49.467 103.108 45.706 116.429 L 38.87 140.647 L 33.644 140.652 L 28.419 140.657 L 27.787 138.065 Z M 136.224 120.013 C 134.329 118.592 133.549 116.838 133.549 114.001 C 133.549 111.862 133.746 111.25 134.931 109.709 C 136.132 108.148 136.607 107.886 138.556 107.714 C 140.311 107.559 141.099 107.739 142.172 108.542 C 145.392 110.95 145.504 116.909 142.381 119.626 C 140.802 120.999 137.791 121.189 136.224 120.013 Z M 153.516 119.41 C 149.733 116.661 150.701 109.575 155.073 108.014 C 159.584 106.403 163.339 112.294 161.096 117.463 C 159.844 120.349 156.124 121.305 153.516 119.41 Z M 137.071 100.607 C 135.417 100.001 134.657 99.252 133.603 97.191 C 131.738 93.546 132.849 88.77 136.028 86.756 C 140.199 84.115 145.31 87.643 145.31 93.163 C 145.31 96.357 144.158 98.64 141.842 100.04 C 139.877 101.227 139.037 101.327 137.071 100.607 Z M 153.395 98.54 C 151.79 97.252 150.777 94.335 151.178 92.155 C 151.32 91.386 151.9 90.099 152.467 89.296 C 155.607 84.849 161.725 87.34 161.725 93.065 C 161.725 94.28 161.442 95.926 161.096 96.722 C 159.804 99.701 155.971 100.606 153.395 98.54 Z M 169.98 96.25 C 168.434 94.409 168.36 92.21 169.786 90.511 C 171.998 87.874 175.813 89.48 175.813 93.048 C 175.813 95.329 175.46 96.149 174.126 96.971 C 172.387 98.043 171.33 97.859 169.98 96.25 Z M 137.485 81.428 C 133.719 80.339 131.477 77.032 131.477 72.564 C 131.477 69.51 132.153 67.772 134.157 65.675 C 135.946 63.803 137.044 63.433 139.961 63.721 C 144.987 64.218 148.107 70.316 146.167 75.851 C 144.671 80.119 141.035 82.454 137.485 81.428 Z M 118.756 77.961 C 116.935 76.637 115.999 74.33 116.277 71.854 C 116.577 69.193 117.734 67.471 119.809 66.598 C 124.62 64.572 128.818 70.98 125.974 76.009 C 124.284 78.998 121.295 79.806 118.756 77.961 Z M 153.645 77.947 C 152.273 76.871 150.947 74.309 150.961 72.763 C 150.966 72.216 151.315 70.862 151.737 69.755 C 153.409 65.366 158.24 64.893 160.859 68.861 C 161.926 70.477 162.019 73.985 161.047 75.946 C 159.593 78.878 156.053 79.835 153.645 77.947 Z M 101.554 76.415 C 99.368 74.47 99.68 69.776 102.096 68.288 C 105.048 66.468 108.245 68.74 108.264 72.67 C 108.284 76.662 104.32 78.874 101.554 76.415 Z M 85.221 75.892 C 84.337 75.372 83.412 73.537 83.412 72.305 C 83.412 71.947 83.799 71.068 84.271 70.353 C 85.331 68.746 87.86 68.531 88.942 69.955 C 89.851 71.153 89.829 74.115 88.902 75.11 C 87.911 76.175 86.286 76.52 85.221 75.892 Z M 136.746 55.828 C 135.075 54.595 134.491 51.932 135.395 49.662 C 137.279 44.929 143.079 46.597 143.079 51.872 C 143.079 55.784 139.617 57.947 136.746 55.828 Z M 119.657 54.598 C 118.831 53.751 118.494 52.945 118.494 51.818 C 118.494 48.347 121.968 46.845 123.877 49.49 C 125.094 51.176 125.104 52.358 123.915 53.944 C 122.517 55.808 121.057 56.033 119.657 54.598 Z M 102.807 53.866 C 101.639 52.245 101.602 51.278 102.661 50.017 C 104.198 48.185 106.202 49.304 106.202 51.996 C 106.202 53.219 105.959 53.716 105.146 54.157 C 103.755 54.913 103.542 54.886 102.807 53.866 Z M 136.942 37.427 C 136.036 36.421 135.714 33.844 136.352 32.705 C 136.796 31.914 138.341 31.026 139.277 31.026 C 140.495 31.026 141.802 32.56 142.088 34.327 C 142.609 37.543 139.002 39.715 136.942 37.427 Z"
            fill="#000000"
            stroke-width="12"/>
    </g>
</svg>
